images_sukapura_svg/cmd/sc_numberformatdate.svg

<svg viewBox="0 0 16 16" xmlns="http://www.w3.org/2000/svg">/&amp;gt;<g fill="#69696e"><path d="m0 0v2 1 13h16v-13-3zm1 3h14v12h-2-10-2z"/><path d="m11.929945 4.9271978-3.9972523 9.0728022h-1.7513739l3.9903852-8.6607142h-5.171704v-1.3392858h6.929945z"/></g></svg>

<?xml version="1.0" encoding="UTF-8" standalone="no"?>
<svg
   xmlns:dc="http://purl.org/dc/elements/1.1/"
   xmlns:cc="http://creativecommons.org/ns#"
   xmlns:rdf="http://www.w3.org/1999/02/22-rdf-syntax-ns#"
   xmlns:svg="http://www.w3.org/2000/svg"
   xmlns="http://www.w3.org/2000/svg"
   xmlns:sodipodi="http://sodipodi.sourceforge.net/DTD/sodipodi-0.dtd"
   xmlns:inkscape="http://www.inkscape.org/namespaces/inkscape"
   viewBox="0 0 16 16"
   version="1.1"
   id="svg4"
   sodipodi:docname="sc_numberformatdate.svg"
   inkscape:version="0.92.3 (unknown)"><metadata
   id="metadata10">
  <rdf:RDF>
    <cc:Work
       rdf:about="">
      <dc:format>image/svg+xml</dc:format>
      <dc:type
         rdf:resource="http://purl.org/dc/dcmitype/StillImage" />
      <dc:title></dc:title>
    </cc:Work>
  </rdf:RDF>
</metadata>
<defs
   id="defs8" />
<sodipodi:namedview
   pagecolor="#ffffff"
   bordercolor="#666666"
   borderopacity="1"
   objecttolerance="10"
   gridtolerance="10"
   guidetolerance="10"
   inkscape:pageopacity="0"
   inkscape:pageshadow="2"
   inkscape:window-width="1366"
   inkscape:window-height="699"
   id="namedview6"
   showgrid="true"
   inkscape:zoom="14.75"
   inkscape:cx="2.2818328"
   inkscape:cy="9.0847285"
   inkscape:window-x="0"
   inkscape:window-y="0"
   inkscape:window-maximized="1"
   inkscape:current-layer="svg4">
  <inkscape:grid
     type="xygrid"
     id="grid817" />
</sodipodi:namedview>

/&gt;<path
   d="M 0,0 V 2 3 16 H 16 V 3 0 Z M 1,3 H 15 V 15 H 13 3 1 Z"
   id="path2"
   inkscape:connector-curvature="0"
   style="fill:#69696e;fill-opacity:1"
   sodipodi:nodetypes="ccccccccccccccc" />
<path
   id="path1478"
   style="font-style:normal;font-variant:normal;font-weight:500;font-stretch:normal;font-size:medium;line-height:1.25;font-family:Roboto;-inkscape-font-specification:'Roboto Medium';letter-spacing:0px;word-spacing:0px;fill:#69696e;fill-opacity:1;stroke:none;stroke-width:0.35164839"
   d="M 11.929945,4.9271978 7.9326927,14 H 6.1813188 L 10.171704,5.3392858 H 5 V 4 h 6.929945 z"
   inkscape:connector-curvature="0" />
</svg>
